X: 4152
T: CUTTY CLAY
R: Reel.
%R: reel
B: James Kerr "Merry Melodies" v.4 p.18 #152
Z: 2016 John Chambers <jc:trillian.mit.edu>
M: C|
L: 1/8
K: F
|:\
c2(cd) cBAB | cfef gfed |\
c2(cd) cBAB | G^FGA B=Bdc :|\
faga fcAc |
faga baga |\
[1 faga fcAc | BAGA Bcde :|\
[2 bgaf gefd | cdef gfed |]

%%sep 1 1 500
%%sep 1 1 500

